src/images/Location.svg

<svg width="80" height="80" viewBox="0 0 80 80" fill="none" xmlns="http://www.w3.org/2000/svg">
<rect width="80" height="80" rx="10" fill="#FFCC29"/>
<path d="M49.64 46.97C48.9103 46.6033 48.0213 46.8878 47.64 47.61C47.2877 48.3457 47.579 49.2284 48.3 49.61C50.06 50.51 51.06 51.61 51.06 52.67C51.06 54.93 46.34 57.45 40.02 57.45C33.7 57.45 28.96 54.95 28.96 52.75C28.96 51.71 29.96 50.59 31.72 49.69C32.2478 49.4783 32.6106 48.9864 32.6568 48.4197C32.703 47.8529 32.4248 47.3087 31.9383 47.0144C31.4518 46.72 30.8406 46.726 30.36 47.03C27.9318 47.9452 26.239 50.166 26 52.75C26 57.19 32 60.53 40 60.53C48 60.53 54 57.19 54 52.75C53.7831 50.1436 52.0865 47.8945 49.64 46.97Z" fill="#C10023"/>
<path fill-rule="evenodd" clip-rule="evenodd" d="M38.5 53.63V44.99C31.9138 44.1964 27.0851 38.4106 27.4825 31.7887C27.88 25.1667 33.3662 20 40 20C46.6338 20 52.12 25.1667 52.5175 31.7887C52.9149 38.4106 48.0862 44.1964 41.5 44.99V53.63C41.5 54.4584 40.8284 55.13 40 55.13C39.1716 55.13 38.5 54.4584 38.5 53.63ZM48.8484 28.8823C47.3636 25.3081 43.8703 22.9819 40 22.99C34.7358 23.001 30.471 27.2657 30.46 32.53C30.4519 36.4003 32.7782 39.8936 36.3523 41.3784C39.9264 42.8632 44.0432 42.0466 46.7799 39.3099C49.5166 36.5732 50.3333 32.4564 48.8484 28.8823Z" fill="#C10023"/>
<path d="M35.18 34.75C36.0084 34.75 36.68 34.0784 36.68 33.25C36.68 30.9525 38.5425 29.09 40.84 29.09C41.6684 29.09 42.34 28.4184 42.34 27.59C42.34 26.7615 41.6684 26.09 40.84 26.09C38.9357 26.0953 37.1116 26.8568 35.7688 28.2071C34.4261 29.5573 33.6747 31.3857 33.68 33.29C33.6853 33.6825 33.8463 34.0569 34.1276 34.3307C34.4089 34.6045 34.7875 34.7553 35.18 34.75Z" fill="#C10023"/>
</svg>

<svg xmlns="http://www.w3.org/2000/svg" width="80" height="80" fill="none"><rect width="80" height="80" fill="#FFCC29" rx="10"/><path fill="#C10023" d="M49.64 46.97a1.5 1.5 0 0 0-2 .64 1.52 1.52 0 0 0 .66 2c1.76.9 2.76 2 2.76 3.06 0 2.26-4.72 4.78-11.04 4.78s-11.06-2.5-11.06-4.7c0-1.04 1-2.16 2.76-3.06a1.5 1.5 0 1 0-1.36-2.66A6.78 6.78 0 0 0 26 52.75c0 4.44 6 7.78 14 7.78s14-3.34 14-7.78a6.78 6.78 0 0 0-4.36-5.78"/><path fill="#C10023" fill-rule="evenodd" d="M38.5 53.63v-8.64c-6.586-.794-11.415-6.58-11.017-13.201S33.366 20 40 20s12.12 5.167 12.517 11.789S48.088 44.196 41.5 44.99v8.64a1.5 1.5 0 0 1-3 0m10.348-24.748a9.56 9.56 0 1 0-17.657 7.335 9.56 9.56 0 0 0 17.657-7.335" clip-rule="evenodd"/><path fill="#C10023" d="M35.18 34.75a1.5 1.5 0 0 0 1.5-1.5 4.16 4.16 0 0 1 4.16-4.16 1.5 1.5 0 0 0 0-3 7.18 7.18 0 0 0-7.16 7.2 1.48 1.48 0 0 0 1.5 1.46"/></svg>
